X: 1
T: The Mug Of Brown Ale
R: jig
M: 6/8
L: 1/8
K: Ador
g/2f/2|:eAA fAA|~g3 age|dBG GAG|~B3 Bcd|
eAA fAA|~g3 age|dBd gdB|ABA ABd:|
efg ~a3|aba age|dBd ~g3|gba ged|
efg ~g3|aba age|dBd gdB|ABA ABd|
efg ~a3|aba age|dBd ~g3|gba ged|
efg a2b|^c'ac' age|dBd gdB|ABA A2||


Tune 888	Setting 27128

